X:143
T:Coast of Austria, The
M:C|
L:1/8
C:Sean Ryan
R:reel
D:Sean Ryan: Siuil Uait
Z:id:hn-reel-218
K:A
ce~e2 fece|ef~f2 ecBc|Ae~e2 fece|faag ~a3b|
c'bac' baf2|effe faaf|e2ce ef~f2|ecBc ~A3B:|
|:Jc3B AF~F2|~E3F ~A3B|ce~e2 fece|faag ~a3b|
c'bac' baf2|effe faaf|e2ce ef~f2|ecBc ~A3B:|
%  ABC2Win Version 2.1 24.12.2000
K: D
|:FA ~A2 BAFA | AB ~B2 AFEF | DA ~A2 BAFA | Bddc ~d3ef |
fedf ed B2 | ABBA BddB | A2 FA AB ~B2 | AFEF ~D3 E :|
|: F3E DB, ~B,2 | ~A,3B, ~D3E | FA ~A2 BAFA | Bddc ~d3e |
fedf ed B2 | ABBA  BddB | A2 FA AB ~B2 | BFEF ~D3 E :|
